X: 100376
T: DAVIE LONIE'S FARM YARD HORNPIPE
C: Composed by W.B. Laybourn, 1885
R: hornpipe, reel
B: K\"ohler's Violin Repository, v.3, 1885 p.250 #3
F: http://www.archive.org/details/klersviolinrepos03rugg
Z: 2012 John Chambers <jc:trillian.mit.edu>
U: P=!crescendo(!
U: p=!crescendo)!
M: C|
L: 1/8
K: F
(uAB) |\
cagf edc=B | (c=B)cd c2z2 | v[c2F2][c2F2] [c2F2][c2F2] | [c2F2](Pcf e2pg)z |
vcagf edc^c | dbag fedc | Beg(Pf e2pg)z | fefg f2 ||
(uAB) |\
c=Bcd cA_B=B | c=Bcd cA_B=B | c=Bcd A_Bc^c | (d^c)d_e d2ef |
g^fga gef^f | g^fga gef^f | g^fga e=fg^g | (a^g)ab a2 "_D.C."|]

%%sep 2 1 500

